X: 01
T: A TRIBUTE TO LINDSAY ROSS
C: Andrew Rankine 1980
R: reel
B: "The Complete Andrew Rankine Collection of Scottish Country Dance Tunes" p.4
Z: 2017 John Chambers <jc:trillian.mit.edu>
M: C|
L: 1/8
K: F
c2 |\
"F" F3A c2d2 | F3A c4 | F2Ac dcAF | "C7"B4- B2e2 |\
G3B c2e2 | G3B c4 | G2Bc ecBG | "F"A4- A2c2 ||
"F"F3A c2d2 | F3A c4 | F2Ac "F7"dAc^c | "Bb"d4- d4 |\
d2^cd fdBF | "F"A2^GA cAFD | "C7"C2EG cBDE | "F"F4- F2 |]
"C7"C2 |\
"F"F2CF AGFA | cBAc dcAc | f2dc AFD^D | "C7"E4- E4 |\
E2CE GFEG | B2GB dcBc | e2cB GEG^G | "F"A4- A2 C2 ||
"F"F2CF AGFA | cBAc dcAc | f2dc "F7"cAc^c | "Bb"d4- d4 |\
d2^cd fdBF | "F"A2^GA cAFD | "C7"C2EG cBDE | "F"F4- F2 |]

%%sep 1 1 500

